X:1
T:Title
%%score { 1 | ( 2 3 ) }
L:1/8
M:4/4
K:C
V:1 treble nm="Grand Piano"
V:2 bass 
V:3 bass 
V:1
 z4 z2[Q:1/4=100] C2 | D2 E2 F2 E2 | [B,D]4 C2 D2 | E2 F2 G2 A2 |[M:3/4] [EG]6 |[M:1/4] [EG]2 | %6
[M:4/4] [Ec]2 [Ec]2 [FB]2 [FA]2 | [EG]4 E2 E2 | D2 G2 G2 ^F2 |[M:3/4] G6 |[M:1/4] G2 | %11
[M:4/4] d2 B2 A2 G2 | [Ee]4 [Ec]2[K:bass] [C,E,_B,C]2 | %13
 [F,_B,D]2[K:treble] [B,CE]2 [F,B,CF]2 [G,B,CG]2 |[M:3/4] [A,CFA]6 |[M:1/4] [^GB]2 | %16
[M:4/4] [Ec]2 [Ec]2 [_EB]2 [EA]2 | G4 G2 F2 | E2 C2 [F,B,E]2 [F,B,D]2 |[M:7/4] [E,G,C]6 z2 z2 z4 | %20
[M:4/4] [F,A,CF]8 | [G,CE]8 |] %22
V:2
 z4 z2 [C,E,]2 | [C,F,C]2 [C,G,C]2 [C,A,C]2 [C,G,C]2 | [G,,F,]4 [A,,E,]2 [B,,G,]2 | %3
 [C,G,C]2 [D,G,C]2 [E,G,C]2 [F,CF]2 |[M:3/4] [C,C]6 |[M:1/4] [C,C]2 | %6
[M:4/4] [C,G,]2 [C,G,]2 [C,A,]2 [C,B,]2 | [C,C]4 [C,G,C]2 [^C,G,_B,]2 | %8
 [D,G,B,]2 [D,B,D]2 [D,A,C]2 [D,A,C]2 |[M:3/4] [G,B,]6 |[M:1/4] G,2 | %11
[M:4/4][K:treble] [G,B,F]2 [G,DF]2 [G,CF]2 [G,B,F]2 | [C,C]4 [C,G,]2 z2 | D,2 E,2 D,,2 E,,2 | %14
[M:3/4] [F,,C,]6 |[M:1/4] [E,D]2 |[M:4/4] [A,C]2 [A,,E,]2 [B,,^F,]2 [B,,B,]2 | %17
 [E,B,E]4 [F,A,D]2 [F,A,D]2 | [G,C]2 [E,G,]2 G,,2 G,,2 |[M:7/4] C,6 z2 z2 z4 |[M:4/4] F,,8 | C,8 |] %22
V:3
 x8 | x8 | x8 | x8 |[M:3/4] x6 |[M:1/4] x2 |[M:4/4] x8 | x8 | x8 |[M:3/4] x6 |[M:1/4] x2 | %11
[M:4/4][K:treble] x8 | z4 z2 C,,2- | C,,4 z4 |[M:3/4] x6 |[M:1/4] x2 |[M:4/4] x8 | x8 | x8 | %19
[M:7/4] x14 |[M:4/4] x8 | x8 |] %22

